X: 473
T: Ba cong
%%abc-version 2.0
%%abcx-abcm2ps-target-version 5.9.1 (29 Sep 2008)
%%abc-creator hum2abc beta
%%abcx-conversion-date 2013/10/02 07:52:30
%%abc-edited-by Helmut Schaffrath
%%humdrum-veritas 940800128
%%humdrum-veritas-data 1316096465
%%continueall 1
%%barnumbers 0
L: 1/8
M: 2/4
K: F
d c A c [I:setbarnb 1]| 
G4 | 
d c A c | 
G4 | 
F2G2 | 
A f d c | 
c G c f | 
c A G F | 
C2F2 | 
GD2B, | 
C4 | 
AG2C | 
F4 | 
C2F2 | 
c AG2 | 
DD2B, | 
C4 |]  



